icons/select-by-attributes-16.svg

<?xml version="1.0" encoding="UTF-8"?><svg id="icons" xmlns="http://www.w3.org/2000/svg" viewBox="0 0 16 16"><defs><style>.cls-1{fill:none;}.cls-1,.cls-2,.cls-3{stroke-width:0px;}.cls-3{fill:#6f6f6f;opacity:.3;}</style></defs><path class="cls-2" d="M8,1v1h6v3.01819c-1.11719.12842-2.74048.52557-4.16016,1.6994.04297.09259.08575.18359.12909.28241h-1.90491l.6264-.35254c-.19727-.35156-.3877-.61523-.56641-.86328-.21875-.30078-.40625-.56055-.56836-.94531l-.92188.38867c.20605.48926.44727.82227.67969,1.14355.13379.18433.27545.38818.42053.62891H2v-2h-1v2H0v9h10v-1h1v-1.24567c-.14276-.28558-.26746-.54761-.37695-.79047l-.62305.28149v-6.17657l.26105.62744c1.23785-1.1283,2.70563-1.53442,3.73895-1.67041v7.97418h-2v1h3V1h-7ZM1,15v-7h8v7H1ZM10.01068,14h-.01068v-.02222c.00372.00763.00696.01459.01068.02222ZM6.00751,2h-1.00751v-1h2v.87573c.02966.35181.06128.67004.09668.95435l-.99219.125c-.03589-.28625-.06805-.60498-.09698-.95508ZM2,3h-1V1h2v1h-1v1ZM2,9h1v1h-1v-1ZM2,11h1v1h-1v-1ZM2,13h1v1h-1v-1ZM4,9h4v1h-4v-1ZM4,11h4v1h-4v-1ZM4,13h4v1h-4v-1Z"/><path class="cls-3" d="M1,7V1h6c-.20245,3.5755,1.27551,4.90802,1.69043,5.64746.04291.07648.10309.20374.16962.35254H1ZM10,11.25714v3.74286h1v-1.24567c-.56909-1.13837-.84259-1.89062-1-2.49719Z"/><rect class="cls-1" width="16" height="16"/></svg>

<svg xmlns="http://www.w3.org/2000/svg" viewBox="0 0 16 16"><path d="M8 1v1h6v3.018c-1.117.129-2.74.526-4.16 1.7.043.092.086.183.129.282H8.064l.626-.353a8.535 8.535 0 0 0-.566-.863c-.219-.3-.406-.56-.568-.945l-.922.389c.206.489.447.822.68 1.143.133.184.275.388.42.629H2V5H1v2H0v9h10v-1h1v-1.246a21.916 21.916 0 0 1-.377-.79l-.623.281V7.07l.261.627C11.5 6.568 12.967 6.162 14 6.026V14h-2v1h3V1H8zM1 15V8h8v7H1zm9.01-1H10v-.022l.01.022zM6.009 2H5V1h2v.876c.03.352.061.67.097.954l-.993.125A22.916 22.916 0 0 1 6.008 2zM2 3H1V1h2v1H2v1zm0 6h1v1H2V9zm0 2h1v1H2v-1zm0 2h1v1H2v-1zm2-4h4v1H4V9zm0 2h4v1H4v-1zm0 2h4v1H4v-1z" stroke-width="0"/><path d="M1 7V1h6c-.202 3.575 1.276 4.908 1.69 5.647.043.077.104.204.17.353H1zm9 4.257V15h1v-1.246c-.57-1.138-.843-1.89-1-2.497z" fill="#6f6f6f" opacity=".3" stroke-width="0"/><path stroke-width="0" fill="none" d="M0 0h16v16H0z"/></svg>
